svg/fluentui-system-icons/ic_fluent_people_error_24_filled.svg

<svg width="24" height="24" viewBox="0 0 24 24" fill="none" xmlns="http://www.w3.org/2000/svg">
<path d="M8 11C10.2091 11 12 9.20914 12 7C12 4.79086 10.2091 3 8 3C5.79086 3 4 4.79086 4 7C4 9.20914 5.79086 11 8 11ZM17 11C18.6569 11 20 9.65685 20 8C20 6.34315 18.6569 5 17 5C15.3431 5 14 6.34315 14 8C14 9.65685 15.3431 11 17 11ZM4.25 13C3.00736 13 2 14.0074 2 15.25V15.5C2 15.5 2 20 8 20C9.38985 20 10.4578 19.7585 11.2783 19.3875C11.0973 18.7901 11 18.1564 11 17.5C11 15.8431 11.6199 14.3311 12.6405 13.1831C12.3674 13.0653 12.0663 13 11.75 13H4.25ZM23 17.5C23 20.5376 20.5376 23 17.5 23C14.4624 23 12 20.5376 12 17.5C12 14.4624 14.4624 12 17.5 12C20.5376 12 23 14.4624 23 17.5ZM17.5 14C17.2239 14 17 14.2239 17 14.5V18.5C17 18.7761 17.2239 19 17.5 19C17.7761 19 18 18.7761 18 18.5V14.5C18 14.2239 17.7761 14 17.5 14ZM17.5 21.125C17.8452 21.125 18.125 20.8452 18.125 20.5C18.125 20.1548 17.8452 19.875 17.5 19.875C17.1548 19.875 16.875 20.1548 16.875 20.5C16.875 20.8452 17.1548 21.125 17.5 21.125Z" fill="#212121"/>
</svg>

<svg xmlns="http://www.w3.org/2000/svg" width="24" height="24"><path d="M8 11a4 4 0 1 0 0-8 4 4 0 0 0 0 8Zm9 0a3 3 0 1 0 0-6 3 3 0 0 0 0 6ZM4.25 13A2.25 2.25 0 0 0 2 15.25v.25S2 20 8 20c1.39 0 2.458-.241 3.278-.613A6.5 6.5 0 0 1 11 17.5c0-1.657.62-3.169 1.64-4.317a2.243 2.243 0 0 0-.89-.183h-7.5ZM23 17.5a5.5 5.5 0 1 1-11 0 5.5 5.5 0 0 1 11 0ZM17.5 14a.5.5 0 0 0-.5.5v4a.5.5 0 0 0 1 0v-4a.5.5 0 0 0-.5-.5Zm0 7.125a.625.625 0 1 0 0-1.25.625.625 0 0 0 0 1.25Z"/></svg>
